img/singleSubscriptionIMG_3.svg

<svg width="206" height="101" viewBox="0 0 206 101" fill="none" xmlns="http://www.w3.org/2000/svg">
<circle r="4.5303" transform="matrix(-1 0 0 1 169.015 68.9545)" fill="#FFD43A"/>
<circle r="12.4091" transform="matrix(-1 0 0 1 102.439 61.0758)" fill="#FFD43A"/>
<path d="M38.6602 77.2093C41.9701 82.7424 43.6414 87.5213 45.7125 87.0758C47.7837 86.6302 46.5587 82.5125 45.0827 75.6515C43.6067 68.7906 41.809 63.5341 39.7379 63.9796C37.6667 64.4252 37.1842 70.3483 38.6602 77.2093Z" fill="#FFD43A"/>
<path d="M165.076 80.3788C165.076 82.2281 167.219 82.1515 170.591 82.1515C173.963 82.1515 176.697 79.8645 176.697 78.0151C176.697 76.1658 173.963 76.8333 170.591 76.8333C167.219 76.8333 165.076 78.5295 165.076 80.3788Z" fill="#FFD43A"/>
<path d="M0.99999 99.0764C2.27804 98.7449 5.51577 97.6839 8.24228 96.0924C11.6504 94.1031 12.0764 91.9717 18.3247 95.0978C24.5729 98.2238 29.1171 101.065 37.0695 100.071C45.0218 99.0764 48.4299 98.9345 48.1459 95.0978C47.8619 91.2611 45.4478 87.4245 48.8559 85.2931C52.2641 83.1617 54.3941 81.0303 52.4061 74.6361C50.418 68.2419 49.14 68.9524 48.1459 67.6735C47.1518 66.3947 44.7377 64.4054 46.1578 60.4268C47.5779 56.4481 45.7318 50.9065 41.7556 49.6277C37.7795 48.3488 36.5014 48.7751 36.5014 49.2014C36.5014 49.6277 40.1936 60.1426 39.7675 61.9898C39.3415 63.837 38.0635 64.8317 37.7795 65.8263C37.4955 66.821 38.7735 76.4833 39.7675 77.478C40.7616 78.4726 42.4657 81.5987 43.0337 83.8722C43.6017 86.1457 47.1518 90.4085 46.1578 85.2931C45.1638 80.1777 44.3117 77.7622 44.3117 75.7729C44.3117 73.7835 43.0337 66.6789 41.7556 65.8263C40.4776 64.9738 37.6375 66.5368 36.5014 62.4161C35.3654 58.2954 31.6732 41.102 31.5312 39.539C31.3892 37.976 33.3773 34.2816 34.6553 33.429C35.9334 32.5764 35.7914 32.1502 35.2234 32.1502C34.6553 32.1502 31.2472 32.7185 32.9513 31.2976C34.6553 29.8767 34.5133 29.1662 33.5193 29.4504C32.5253 29.7346 31.3892 30.587 30.5372 28.1714C29.6851 25.7558 29.4011 25.6137 28.9751 25.6137C28.5491 25.6137 28.5491 28.4556 28.2651 29.166C27.9811 29.8765 25.851 30.7291 25.851 31.1554C25.851 31.5816 29.4011 31.4395 29.4011 31.8658C29.4011 32.2921 25.709 33.9972 26.135 34.5656C26.561 35.134 30.8212 33.713 32.6673 37.4075C34.5133 41.1019 35.6494 45.6489 35.6494 46.5015C35.6494 47.354 35.3654 48.3485 34.6553 48.775C33.9453 49.2014 27.555 51.7589 27.271 55.3113C26.987 58.8636 28.6911 61.2792 29.1171 62.1317C29.5431 62.9843 29.2591 65.1157 29.8271 65.1157C30.3952 65.1157 32.8093 64.4055 33.5193 65.8263C34.2293 67.2471 33.9453 70.5153 33.3773 71.3678C32.8093 72.2204 31.2472 73.4992 30.6792 73.9255C30.1112 74.3518 31.2472 75.0623 31.3892 75.4885C31.5312 75.9148 31.6732 82.8774 32.0992 83.7299C32.5253 84.5825 32.9513 87.9928 38.4895 88.9874C44.0277 89.9821 50.134 88.1347 52.4061 86.0034C54.6782 83.8722 56.9502 79.4674 54.5361 74.6361C52.122 69.8048 50.5601 68.3839 57.2344 68.3839C63.9086 68.3839 68.7368 69.9469 76.4051 73.7834C84.0734 77.6199 93.5878 77.1937 95.7179 76.0569C97.848 74.9202 101.114 70.9415 100.546 69.6627C99.9781 68.3839 98.4161 68.0997 97.9901 69.0943C97.5641 70.089 97.9902 75.7727 99.2682 74.7781C100.546 73.7834 102.96 69.8048 102.676 65.6841C102.392 61.5634 100.688 59.8582 101.824 57.5848C102.96 55.3113 105.374 55.3113 106.226 53.464C107.078 51.6168 114.179 23.9086 114.463 22.6297C114.747 21.3509 114.463 19.93 113.611 19.0774C112.759 18.2248 111.197 14.8146 113.327 14.2462C115.457 13.6779 118.723 13.962 119.149 11.8306C119.575 9.69924 118.439 6.99946 115.883 7.70993C113.327 8.42039 112.617 10.8832 113.895 12.399C115.173 13.9149 117.445 14.5304 117.303 15.5251C117.161 16.5198 117.019 17.6565 116.167 18.367C115.315 19.0774 112.759 18.5091 112.049 19.3616C111.481 20.0437 107.457 35.2761 105.517 42.8071C104.712 45.4595 103.472 50.9632 104.949 51.7589C106.795 52.7536 112.759 53.7483 114.605 59.7162C116.451 65.6841 114.037 74.636 105.517 76.6253C96.9962 78.6146 91.174 73.073 90.4639 71.0837C89.7539 69.0943 87.7658 61.2792 91.174 57.1585C94.5821 53.0378 97.5089 50.7643 102.25 50.9064C106.992 51.0485 110.913 51.1906 117.019 53.0378C123.125 54.885 133.776 62.5581 140.592 67.2471C147.408 71.9362 149.254 70.3732 151.384 68.2418C153.514 66.1104 154.651 63.2685 158.343 64.2632C162.035 65.2578 164.023 66.3946 164.875 64.2632C165.727 62.1318 165.017 60.995 164.591 61.2792C164.165 61.5634 163.455 62.5581 161.041 62.7001C158.627 62.8422 155.929 64.1211 158.059 67.6734C160.189 71.2258 161.609 71.5099 161.325 72.9309C161.041 74.3518 157.349 82.4511 160.047 86.9981C162.745 91.5451 164.591 95.0975 176.661 94.1028C188.732 93.1082 188.022 78.0462 184.898 74.636C181.774 71.2258 178.081 68.9523 178.507 65.2578C178.933 61.5634 178.791 59.432 176.377 57.869C173.963 56.3059 171.123 56.7322 169.561 57.3006C167.999 57.869 166.721 60.4267 166.011 59.7162C165.301 59.0057 160.757 42.8071 160.331 40.1073C159.905 37.4075 159.337 34.5656 160.615 32.5763C161.893 30.587 161.893 29.5924 161.751 28.3135C161.609 27.0347 159.905 20.9247 159.479 21.2088C159.053 21.493 158.343 22.7719 157.491 22.914C156.639 23.0561 155.077 22.4877 155.077 23.3402C155.077 24.1928 156.781 26.3242 156.639 27.7451C156.497 29.1661 155.787 32.5763 156.639 33.1447C157.491 33.7131 161.183 32.5763 162.177 33.9973C163.171 35.4182 166.295 49.2013 167.289 51.7589C168.283 54.3166 171.549 64.8316 172.401 66.5367C173.253 68.2418 174.247 73.073 169.419 72.7888C164.591 72.5046 164.023 67.8155 167.005 65.8262C169.987 63.8369 173.253 64.8316 173.963 66.1104C174.673 67.3892 175.667 75.0623 175.525 76.9095C175.383 78.7567 176.661 80.4618 171.833 80.8881C167.971 81.2291 166.342 81.0302 166.011 80.8881L166.295 79.0409C168.709 78.0462 174.418 76.1422 177.939 76.4832C182.342 76.9095 183.762 79.183 185.892 80.1776C188.022 81.1723 192.992 81.3144 194.27 80.1776C195.548 79.0409 197.678 73.2151 203.074 72.3625C208.471 71.5099 212.873 70.9416 215.145 69.2364C216.963 67.8724 223.097 48.1119 225.937 38.4022C228.02 30.8712 232.555 15.8377 234.032 15.9514C235.878 16.0935 236.73 17.5144 237.44 21.7772C238.15 26.04 238.718 33.571 240.138 33.9973C241.558 34.4235 245.392 33.1447 245.392 33.9973C245.392 34.8498 230.198 51.901 228.351 54.0324C226.505 56.1638 218.269 65.1157 219.831 67.3892C221.393 69.6627 224.375 67.3892 230.198 59.1478C236.02 50.9064 247.522 34.8498 248.374 34.2814C249.226 33.7131 250.078 32.7184 249.226 35.7024C248.374 38.6863 232.896 64.6895 231.76 66.6788C230.624 68.6681 228.21 73.073 227.926 74.0676C227.642 75.0623 228.068 76.9095 223.381 76.7674C218.695 76.6253 208.187 75.4121 208.045 73.4993C207.903 71.5864 208.755 67.8155 209.607 67.3892C210.459 66.963 213.157 65.9683 214.293 64.1211C215.429 62.2739 220.399 47.9224 222.529 37.9759C224.659 28.0293 228.778 10.836 229.346 7.70996C229.914 4.5839 229.346 0.605282 232.754 1.03156C236.162 1.45784 240.138 2.59467 242.268 8.70469C244.398 14.8147 242.694 27.461 243.404 28.4557C244.114 29.4503 247.806 28.4557 249.226 28.4557C250.647 28.4557 252.209 28.0294 252.777 30.1608C253.345 32.2922 252.209 45.0806 257.037 46.6437C261.865 48.2067 268.823 40.8178 274.503 40.6757C280.184 40.5336 281.32 44.5123 282.456 46.6437C283.365 48.3488 285.864 50.4802 287 51.3327" stroke="#131441"/>
</svg>

<svg width="206" height="101" fill="none" xmlns="http://www.w3.org/2000/svg"><path d="M1 99.076c1.278-.331 4.516-1.392 7.242-2.984 3.408-1.989 3.834-4.12 10.083-.994 6.248 3.126 10.792 5.967 18.744 4.973 7.953-.995 11.36-1.136 11.077-4.973-.284-3.837-2.698-7.674.71-9.805 3.408-2.131 5.538-4.263 3.55-10.657-1.988-6.394-3.266-5.684-4.26-6.962-.994-1.28-3.408-3.269-1.988-7.247 1.42-3.979-.426-9.52-4.402-10.8-3.977-1.278-5.255-.852-5.255-.426 0 .427 3.693 10.942 3.267 12.789-.426 1.847-1.705 2.842-1.989 3.836-.284.995.994 10.657 1.988 11.652.995.995 2.699 4.12 3.267 6.394.568 2.274 4.118 6.537 3.124 1.421-.994-5.115-1.846-7.53-1.846-9.52 0-1.99-1.278-9.094-2.556-9.947-1.278-.852-4.118.71-5.255-3.41-1.136-4.12-4.828-21.314-4.97-22.877-.142-1.563 1.846-5.257 3.124-6.11 1.278-.853 1.136-1.279.568-1.279s-3.976.569-2.272-.852c1.704-1.421 1.562-2.132.568-1.848-.994.285-2.13 1.137-2.982-1.279-.852-2.415-1.136-2.557-1.562-2.557-.426 0-.426 2.842-.71 3.552s-2.414 1.563-2.414 1.99c0 .426 3.55.284 3.55.71s-3.692 2.131-3.266 2.7c.426.568 4.686-.853 6.532 2.841 1.846 3.695 2.982 8.242 2.982 9.095 0 .852-.284 1.846-.994 2.273-.71.426-7.1 2.984-7.384 6.536-.284 3.553 1.42 5.968 1.846 6.82.426.853.142 2.985.71 2.985s2.982-.71 3.692.71c.71 1.421.426 4.69-.142 5.542-.568.852-2.13 2.131-2.698 2.558-.568.426.568 1.136.71 1.563.142.426.284 7.388.71 8.24.426.853.852 4.264 6.39 5.258 5.539.995 11.645-.852 13.917-2.984 2.272-2.13 4.544-6.536 2.13-11.367-2.414-4.831-3.976-6.252 2.698-6.252 6.675 0 11.503 1.563 19.171 5.4 7.668 3.836 17.183 3.41 19.313 2.273 2.13-1.137 5.396-5.115 4.828-6.394-.568-1.28-2.13-1.563-2.556-.569-.426.995 0 6.679 1.278 5.684 1.278-.995 3.692-4.973 3.408-9.094-.284-4.12-1.988-5.826-.852-8.1 1.136-2.273 3.55-2.273 4.402-4.12.852-1.847 7.953-29.555 8.237-30.834.284-1.28 0-2.7-.852-3.553-.852-.852-2.414-4.262-.284-4.83 2.13-.57 5.396-.285 5.822-2.416.426-2.132-.71-4.832-3.266-4.121-2.556.71-3.266 3.173-1.988 4.689s3.55 2.131 3.408 3.126c-.142.995-.284 2.132-1.136 2.842-.852.71-3.408.142-4.118.995-.568.682-4.592 15.914-6.532 23.445-.805 2.652-2.045 8.156-.568 8.952 1.846.995 7.81 1.99 9.656 7.957 1.846 5.968-.568 14.92-9.088 16.91-8.52 1.989-14.343-3.553-15.053-5.542-.71-1.99-2.698-9.805.71-13.926 3.408-4.12 6.335-6.394 11.076-6.252 4.742.142 8.663.285 14.769 2.132 6.106 1.847 16.757 9.52 23.573 14.21 6.816 4.688 8.662 3.125 10.792.994 2.13-2.132 3.267-4.974 6.959-3.979 3.692.995 5.68 2.132 6.532 0 .852-2.131.142-3.268-.284-2.984-.426.284-1.136 1.28-3.55 1.421-2.414.142-5.112 1.421-2.982 4.973 2.13 3.553 3.55 3.837 3.266 5.258-.284 1.42-3.976 9.52-1.278 14.067 2.698 4.547 4.544 8.1 16.614 7.105 12.071-.995 11.361-16.057 8.237-19.467-3.124-3.41-6.817-5.684-6.391-9.378.426-3.695.284-5.826-2.13-7.389-2.414-1.563-5.254-1.137-6.816-.568-1.562.568-2.84 3.126-3.55 2.415-.71-.71-5.254-16.909-5.68-19.609-.426-2.7-.994-5.541.284-7.53 1.278-1.99 1.278-2.985 1.136-4.263-.142-1.28-1.846-7.39-2.272-7.105-.426.284-1.136 1.563-1.988 1.705-.852.142-2.414-.426-2.414.426 0 .853 1.704 2.984 1.562 4.405-.142 1.421-.852 4.831 0 5.4.852.568 4.544-.569 5.538.852.994 1.421 4.118 15.204 5.112 17.762.994 2.558 4.26 13.073 5.112 14.778.852 1.705 1.846 6.536-2.982 6.252-4.828-.284-5.396-4.974-2.414-6.963 2.982-1.99 6.248-.994 6.958.284.71 1.28 1.704 8.952 1.562 10.8-.142 1.847 1.136 3.552-3.692 3.978-3.862.341-5.491.142-5.822 0l.284-1.847c2.414-.995 8.123-2.899 11.644-2.558 4.403.426 5.823 2.7 7.953 3.695 2.13.994 7.1 1.136 8.378 0 1.278-1.137 3.408-6.963 8.804-7.816 5.397-.852 9.799-1.42 12.071-3.126 1.818-1.364 7.952-21.124 10.792-30.834 2.083-7.53 6.618-22.564 8.095-22.45 1.846.141 2.698 1.562 3.408 5.825s1.278 11.794 2.698 12.22c1.42.426 5.254-.852 5.254 0 0 .853-15.194 17.904-17.041 20.035-1.846 2.132-10.082 11.084-8.52 13.357 1.562 2.274 4.544 0 10.367-8.241 5.822-8.242 17.324-24.298 18.176-24.867.852-.568 1.704-1.563.852 1.421S232.896 64.69 231.76 66.68c-1.136 1.99-3.55 6.394-3.834 7.389-.284.994.142 2.841-4.545 2.7-4.686-.143-15.194-1.356-15.336-3.269-.142-1.913.71-5.683 1.562-6.11.852-.426 3.55-1.42 4.686-3.268 1.136-1.847 6.106-16.199 8.236-26.145 2.13-9.947 6.249-27.14 6.817-30.266.568-3.126 0-7.105 3.408-6.678 3.408.426 7.384 1.563 9.514 7.673 2.13 6.11.426 18.756 1.136 19.75.71.995 4.402 0 5.822 0 1.421 0 2.983-.426 3.551 1.706.568 2.131-.568 14.92 4.26 16.483 4.828 1.563 11.786-5.826 17.466-5.968 5.681-.142 6.817 3.836 7.953 5.968.909 1.705 3.408 3.836 4.544 4.689" stroke="#131441"/></svg>
